public/static/images/components/box/steps/step.svg

<svg width="614" height="429" viewBox="0 0 614 429" fill="none" xmlns="http://www.w3.org/2000/svg">
<path d="M1.7345e-05 335.2V41.5C1.7345e-05 30.7 8.70002 22 19.5 22H20.7C26.1 22 31.4 19.8 35.2 16L45 6.2C48.7 2.5 53.6 0.5 58.8 0.5H172.2C177.4 0.5 182.3 2.6 186 6.2L195.8 16C199.6 19.8 204.9 22 210.3 22H554.5C559.5 22 564.4 24 568 27.4L608 66C611.8 69.7 614 74.8 614 80.1V397.3C614 402.8 611.7 408 607.7 411.7L595.4 423C591.8 426.3 587.1 428.1 582.2 428.1H440.8C435.6 428.1 430.7 426 427 422.4L416.2 411.6C412.4 407.8 407.1 405.6 401.7 405.6H252.3C246.9 405.6 241.6 407.8 237.8 411.6L227 422.3C223.3 426 218.4 428 213.2 428H92.8C88.1477 428 43.7121 428 29.2481 428C26.8161 428 24.4929 427.114 22.6672 425.507L13 417L3.54058 408.996C1.29507 407.096 1.85207e-07 404.329 8.56657e-07 401.387C4.35137e-06 386.078 1.7345e-05 339.701 1.7345e-05 335.2Z" fill="#292D32" fill-opacity="0.4"/>
</svg>

<?xml version="1.0" encoding="utf-8"?>
<!-- Generator: Adobe Illustrator 26.0.0, SVG Export Plug-In . SVG Version: 6.00 Build 0)  -->
<svg version="1.1" id="Capa_1" xmlns="http://www.w3.org/2000/svg" xmlns:xlink="http://www.w3.org/1999/xlink" x="0px" y="0px"
	 viewBox="0 0 614 429" style="enable-background:new 0 0 614 429;" xml:space="preserve">
<style type="text/css">
	.st0{fill:#292D32;fill-opacity:0.4;}
</style>
<path class="st0" d="M0,335.2V41.5C0,30.7,8.7,22,19.5,22h1.2c5.4,0,10.7-2.2,14.5-6L45,6.2c3.7-3.7,8.6-5.7,13.8-5.7h113.4
	c5.2,0,10.1,2.1,13.8,5.7l9.8,9.8c3.8,3.8,9.1,6,14.5,6h344.2c5,0,9.9,2,13.5,5.4L608,66c3.8,3.7,6,8.8,6,14.1v317.2
	c0,5.5-2.3,10.7-6.3,14.4L595.4,423c-3.6,3.3-8.3,5.1-13.2,5.1H440.8c-5.2,0-10.1-2.1-13.8-5.7l-10.8-10.8c-3.8-3.8-9.1-6-14.5-6
	H252.3c-5.4,0-10.7,2.2-14.5,6L227,422.3c-3.7,3.7-8.6,5.7-13.8,5.7H92.8c-4.7,0-49.1,0-63.6,0c-2.4,0-4.8-0.9-6.6-2.5L13,417
	l-9.5-8c-2.2-1.9-3.5-4.7-3.5-7.6C0,386.1,0,339.7,0,335.2z"/>
</svg>
